X:79
T:RVW2/2/79 Robing Wood and Little John
C:John Denny, Billericay, Essex, 25 April 1904
L:1/8
Q:1/4=120
M:3/4
I:linebreak $
K:G
"^(Editorial suggestion  " A | Bd e3 d | BG A3 d | eg a3 g | dd e3 d |$ eg a3 g | (3(ed)B G3 A | 
w: It's|of a ped- lar|ped- lar bold, A|ped- lar bold so|bold was he, he|takes his pack all|on _ his back and|
Bd e3 d | BG A3 |] 
w: mer- ri- ly trudged|o'er the lea.|



